Numix/16/status/indicator-keyboard-Fr-8.svg

<?xml version="1.0" encoding="UTF-8" standalone="no"?>
<svg
   xmlns:dc="http://purl.org/dc/elements/1.1/"
   xmlns:cc="http://creativecommons.org/ns#"
   xmlns:rdf="http://www.w3.org/1999/02/22-rdf-syntax-ns#"
   xmlns:svg="http://www.w3.org/2000/svg"
   xmlns="http://www.w3.org/2000/svg"
   xmlns:sodipodi="http://sodipodi.sourceforge.net/DTD/sodipodi-0.dtd"
   xmlns:inkscape="http://www.inkscape.org/namespaces/inkscape"
   viewBox="0 0 16 16"
   id="svg2"
   version="1.1"
   inkscape:version="0.91 r13725"
   sodipodi:docname="indicator-keyboard-Fr-8.svg">
  <metadata
     id="metadata14">
    <rdf:RDF>
      <cc:Work
         rdf:about="">
        <dc:format>image/svg+xml</dc:format>
        <dc:type
           rdf:resource="http://purl.org/dc/dcmitype/StillImage" />
      </cc:Work>
    </rdf:RDF>
  </metadata>
  <defs
     id="defs12" />
  <sodipodi:namedview
     pagecolor="#ffffff"
     bordercolor="#666666"
     borderopacity="1"
     objecttolerance="10"
     gridtolerance="10"
     guidetolerance="10"
     inkscape:pageopacity="0"
     inkscape:pageshadow="2"
     inkscape:window-width="459"
     inkscape:window-height="369"
     id="namedview10"
     showgrid="false"
     inkscape:zoom="14.75"
     inkscape:cx="8"
     inkscape:cy="8"
     inkscape:window-x="65"
     inkscape:window-y="24"
     inkscape:window-maximized="0"
     inkscape:current-layer="svg2" />
  <path
     style="fill:#ececec;fill-opacity:1"
     d="M 1.5996094 0 C 0.71320937 2.9605947e-16 0 0.71320937 0 1.5996094 L 0 14.400391 C 2.9605947e-16 15.286791 0.71320937 16 1.5996094 16 L 14.400391 16 C 15.286791 16 16 15.286791 16 14.400391 L 16 1.5996094 C 16 0.71320937 15.286791 0 14.400391 0 L 1.5996094 0 z M 3.0117188 4.859375 L 6.5664062 4.859375 L 6.5664062 5.390625 L 3.6230469 5.390625 L 3.6230469 7.5859375 L 6.2324219 7.5859375 L 6.2324219 8.1171875 L 3.6230469 8.1171875 L 3.6230469 11.095703 L 3.0117188 11.095703 L 3.0117188 4.859375 z M 9.0761719 6.3535156 C 9.2681719 6.3535156 9.4491875 6.3684375 9.6171875 6.3984375 C 9.7911875 6.4284375 9.9105625 6.4582812 9.9765625 6.4882812 L 9.859375 6.9921875 C 9.811375 6.9681875 9.7125 6.9439219 9.5625 6.9199219 C 9.4185 6.8899219 9.2263281 6.875 8.9863281 6.875 C 8.7343281 6.875 8.531 6.8936875 8.375 6.9296875 C 8.225 6.9656875 8.126125 6.9955312 8.078125 7.0195312 L 8.078125 11.095703 L 7.4921875 11.095703 L 7.4921875 6.6582031 C 7.6421875 6.5922031 7.8492812 6.5269375 8.1132812 6.4609375 C 8.3772812 6.3889375 8.6981719 6.3535156 9.0761719 6.3535156 z M 11.724609 8.7539062 C 11.927409 8.7539062 12.103753 8.7852563 12.251953 8.8476562 C 12.400153 8.9061562 12.521634 8.9845313 12.615234 9.0820312 C 12.712734 9.1795312 12.783272 9.2912156 12.826172 9.4160156 C 12.872972 9.5408156 12.896484 9.6681812 12.896484 9.8007812 C 12.896484 9.9294812 12.876891 10.049003 12.837891 10.158203 C 12.798891 10.263503 12.747947 10.361472 12.685547 10.451172 C 12.623147 10.536972 12.552609 10.613388 12.474609 10.679688 C 12.396609 10.745988 12.320194 10.800856 12.246094 10.847656 C 12.519094 10.964656 12.711112 11.111609 12.820312 11.287109 C 12.933412 11.462609 12.988281 11.64875 12.988281 11.84375 C 12.988281 12.01145 12.958884 12.164288 12.896484 12.304688 C 12.837984 12.445088 12.753731 12.566569 12.644531 12.667969 C 12.535331 12.765469 12.402094 12.841884 12.246094 12.896484 C 12.090094 12.954984 11.915709 12.984375 11.724609 12.984375 C 11.533509 12.984375 11.361078 12.956944 11.205078 12.902344 C 11.052978 12.847744 10.919741 12.771328 10.806641 12.673828 C 10.697441 12.572428 10.611228 12.454866 10.548828 12.322266 C 10.490328 12.185766 10.462891 12.038806 10.462891 11.878906 C 10.462891 11.742406 10.480531 11.618966 10.519531 11.509766 C 10.558531 11.396666 10.609475 11.296737 10.671875 11.210938 C 10.738175 11.121237 10.812631 11.042863 10.894531 10.976562 C 10.980331 10.906363 11.070462 10.845622 11.164062 10.794922 C 10.926163 10.677922 10.763534 10.540759 10.677734 10.380859 C 10.591934 10.220959 10.548828 10.046575 10.548828 9.859375 C 10.548828 9.691675 10.578219 9.5407968 10.636719 9.4042969 C 10.695219 9.2677969 10.775553 9.1521937 10.876953 9.0585938 C 10.982253 8.9610938 11.107653 8.8866375 11.251953 8.8359375 C 11.396253 8.7813375 11.553009 8.7539062 11.724609 8.7539062 z M 11.724609 9.0820312 C 11.595909 9.0820312 11.484219 9.101625 11.386719 9.140625 C 11.289219 9.179625 11.206925 9.2344875 11.140625 9.3046875 C 11.078225 9.3709875 11.029241 9.4493625 10.994141 9.5390625 C 10.962941 9.6287624 10.947266 9.7208594 10.947266 9.8183594 C 10.947266 9.9275594 10.959022 10.027487 10.982422 10.117188 C 11.009722 10.206888 11.058706 10.289181 11.128906 10.363281 C 11.199106 10.433481 11.297075 10.5001 11.421875 10.5625 C 11.546675 10.621 11.709309 10.677822 11.912109 10.732422 C 12.091509 10.631022 12.234544 10.505622 12.339844 10.357422 C 12.445144 10.209222 12.498047 10.023081 12.498047 9.8007812 C 12.498047 9.7110812 12.482372 9.6248624 12.451172 9.5390625 C 12.423872 9.4532625 12.378806 9.3768469 12.316406 9.3105469 C 12.257906 9.2403469 12.179531 9.1854844 12.082031 9.1464844 C 11.984531 9.1035844 11.865009 9.0820312 11.724609 9.0820312 z M 11.492188 10.929688 C 11.293288 11.023287 11.138497 11.150647 11.029297 11.310547 C 10.920097 11.466547 10.865234 11.656606 10.865234 11.878906 C 10.865234 11.988106 10.882869 12.088041 10.917969 12.181641 C 10.953069 12.275241 11.005972 12.357534 11.076172 12.427734 C 11.150272 12.497934 11.240403 12.554756 11.345703 12.597656 C 11.454903 12.636656 11.580309 12.65625 11.724609 12.65625 C 11.868909 12.65625 11.994309 12.636656 12.099609 12.597656 C 12.208809 12.554756 12.298941 12.497934 12.369141 12.427734 C 12.443241 12.357534 12.498103 12.275241 12.533203 12.181641 C 12.568303 12.088041 12.585938 11.988106 12.585938 11.878906 C 12.585938 11.711206 12.552628 11.57405 12.486328 11.46875 C 12.423928 11.36345 12.339675 11.277238 12.234375 11.210938 C 12.132975 11.144638 12.015412 11.091734 11.882812 11.052734 C 11.754113 11.013734 11.624787 10.972587 11.492188 10.929688 z "
     id="path4" />
</svg>

<svg xmlns="http://www.w3.org/2000/svg" viewBox="0 0 16 16">
 <path d="m 1.6 0 c -0.886 0 -1.6 0.713 -1.6 1.6 l 0 12.801 c 0 0.886 0.713 1.6 1.6 1.6 l 12.801 0 c 0.886 0 1.6 -0.713 1.6 -1.6 l 0 -12.801 c 0 -0.886 -0.713 -1.6 -1.6 -1.6 l -12.801 0 z m 1.412 4.859 l 3.555 0 l 0 0.531 l -2.943 0 l 0 2.195 l 2.609 0 l 0 0.531 l -2.609 0 l 0 2.979 l -0.611 0 l 0 -6.236 z m 6.06 1.494 c 0.192 0 0.373 0.015 0.541 0.045 c 0.174 0.03 0.293 0.06 0.359 0.09 l -0.117 0.504 c -0.048 -0.024 -0.147 -0.048 -0.297 -0.072 c -0.144 -0.03 -0.336 -0.045 -0.576 -0.045 c -0.252 0 -0.455 0.019 -0.611 0.055 c -0.15 0.036 -0.249 0.066 -0.297 0.09 l 0 4.076 l -0.586 0 l 0 -4.437 c 0.15 -0.066 0.357 -0.131 0.621 -0.197 c 0.264 -0.072 0.585 -0.107 0.963 -0.107 z m 2.648 2.4 c 0.203 0 0.379 0.031 0.527 0.094 c 0.148 0.059 0.27 0.137 0.363 0.234 c 0.098 0.098 0.168 0.209 0.211 0.334 c 0.047 0.125 0.07 0.252 0.07 0.385 c 0 0.129 -0.02 0.248 -0.059 0.357 c -0.039 0.105 -0.09 0.203 -0.152 0.293 c -0.062 0.086 -0.133 0.162 -0.211 0.229 c -0.078 0.066 -0.154 0.121 -0.229 0.168 c 0.273 0.117 0.465 0.264 0.574 0.439 c 0.113 0.176 0.168 0.362 0.168 0.557 c 0 0.168 -0.029 0.321 -0.092 0.461 c -0.058 0.14 -0.143 0.262 -0.252 0.363 c -0.109 0.098 -0.242 0.174 -0.398 0.229 c -0.156 0.059 -0.33 0.088 -0.521 0.088 c -0.191 0 -0.364 -0.027 -0.52 -0.082 c -0.152 -0.055 -0.285 -0.131 -0.398 -0.229 c -0.109 -0.101 -0.195 -0.219 -0.258 -0.352 c -0.059 -0.137 -0.086 -0.283 -0.086 -0.443 c 0 -0.136 0.018 -0.26 0.057 -0.369 c 0.039 -0.113 0.09 -0.213 0.152 -0.299 c 0.066 -0.09 0.141 -0.168 0.223 -0.234 c 0.086 -0.07 0.176 -0.131 0.27 -0.182 c -0.238 -0.117 -0.401 -0.254 -0.486 -0.414 c -0.086 -0.16 -0.129 -0.334 -0.129 -0.521 c 0 -0.168 0.029 -0.319 0.088 -0.455 c 0.059 -0.136 0.139 -0.252 0.24 -0.346 c 0.105 -0.098 0.231 -0.172 0.375 -0.223 c 0.144 -0.055 0.301 -0.082 0.473 -0.082 z m 0 0.328 c -0.129 0 -0.24 0.02 -0.338 0.059 c -0.098 0.039 -0.18 0.094 -0.246 0.164 c -0.062 0.066 -0.111 0.145 -0.146 0.234 c -0.031 0.09 -0.047 0.182 -0.047 0.279 c 0 0.109 0.012 0.209 0.035 0.299 c 0.027 0.09 0.076 0.172 0.146 0.246 c 0.07 0.07 0.168 0.137 0.293 0.199 c 0.125 0.059 0.287 0.115 0.49 0.17 c 0.179 -0.101 0.322 -0.227 0.428 -0.375 c 0.105 -0.148 0.158 -0.334 0.158 -0.557 c 0 -0.09 -0.016 -0.176 -0.047 -0.262 c -0.027 -0.086 -0.072 -0.162 -0.135 -0.229 c -0.059 -0.07 -0.137 -0.125 -0.234 -0.164 c -0.098 -0.043 -0.217 -0.064 -0.357 -0.064 z m -0.232 1.848 c -0.199 0.094 -0.354 0.221 -0.463 0.381 c -0.109 0.156 -0.164 0.346 -0.164 0.568 c 0 0.109 0.018 0.209 0.053 0.303 c 0.035 0.094 0.088 0.176 0.158 0.246 c 0.074 0.07 0.164 0.127 0.27 0.17 c 0.109 0.039 0.235 0.059 0.379 0.059 c 0.144 0 0.27 -0.02 0.375 -0.059 c 0.109 -0.043 0.199 -0.1 0.27 -0.17 c 0.074 -0.07 0.129 -0.152 0.164 -0.246 c 0.035 -0.094 0.053 -0.194 0.053 -0.303 c 0 -0.168 -0.033 -0.305 -0.1 -0.41 c -0.062 -0.105 -0.147 -0.192 -0.252 -0.258 c -0.101 -0.066 -0.219 -0.119 -0.352 -0.158 c -0.129 -0.039 -0.258 -0.08 -0.391 -0.123 z" style="fill:#ececec;fill-opacity:1"/>
</svg>
